source/img/insta.svg

<svg height="23" viewBox="-3 -3 23 23" width="23" xmlns="http://www.w3.org/2000/svg"><g fill="#231f20"><path d="m14.002-1.501c2.48 0 4.498 2.02 4.498 4.501v11c0 2.481-2.018 4.5-4.498 4.5h-10.992a4.504 4.504 0 0 1 -4.498-4.5v-11c0-2.481 2.018-4.5 4.498-4.5h10.992m0-1.5h-10.992c-3.3 0-5.997 2.699-5.997 6v11.001c0 3.298 2.697 5.999 5.997 5.999h10.995c3.296 0 5.995-2.701 5.995-6.001v-10.999c0-3.301-2.699-6-5.998-6z"/><path d="m8.506 4.078a4.434 4.434 0 0 1 4.429 4.428c0 2.44-1.989 4.43-4.429 4.43a4.434 4.434 0 0 1 -4.428-4.43 4.431 4.431 0 0 1 4.428-4.428m0-1.5a5.929 5.929 0 0 0 0 11.855c3.274 0 5.926-2.653 5.926-5.927s-2.652-5.928-5.926-5.928z"/><circle cx="14.646" cy="2.379" r="1.341"/></g></svg>

<svg height="23" viewBox="-3 -3 23 23" width="23" xmlns="http://www.w3.org/2000/svg"><g fill="#231f20"><path d="M14.002-1.501C16.482-1.501 18.5.519 18.5 3v11c0 2.481-2.018 4.5-4.498 4.5H3.01A4.504 4.504 0 0 1-1.488 14V3C-1.488.519.53-1.5 3.01-1.5h10.992m0-1.5H3.01C-.29-3-2.987-.301-2.987 3v11.001C-2.987 17.299-.29 20 3.01 20h10.995C17.301 20 20 17.299 20 13.999V3c0-3.301-2.699-6-5.998-6z"/><path d="M8.506 4.078a4.434 4.434 0 0 1 4.429 4.428c0 2.44-1.989 4.43-4.429 4.43a4.434 4.434 0 0 1-4.428-4.43 4.431 4.431 0 0 1 4.428-4.428m0-1.5a5.929 5.929 0 0 0 0 11.855c3.274 0 5.926-2.653 5.926-5.927S11.78 2.578 8.506 2.578z"/><circle cx="14.646" cy="2.379" r="1.341"/></g></svg>
